svg/300/rounded/outbound.svg

<svg xmlns="http://www.w3.org/2000/svg" width="48" height="48" viewBox="0 -960 960 960"><path d="M584.616-553.001v106.308q0 9.654 6.573 16.173 6.574 6.519 16.307 6.519 9.734 0 16.119-6.519 6.384-6.519 6.384-16.173v-154.46q0-12.269-8.288-20.558-8.289-8.288-20.558-8.288h-154.46q-9.654 0-16.173 6.573-6.519 6.574-6.519 16.307 0 9.734 6.519 16.119 6.519 6.384 16.173 6.384h105.308L332.693-365.307q-6.692 6.595-6.692 15.917 0 9.321 6.301 15.855 7.083 6.919 16.665 6.727 9.582-.193 16.34-6.885l219.309-219.308Zm-104.283 453q-78.955 0-147.897-29.92t-120.755-81.71q-51.814-51.791-81.747-120.777t-29.933-148.025q0-78.655 29.92-147.864t81.71-120.522q51.791-51.314 120.777-81.247t148.025-29.933q78.655 0 147.864 29.92t120.522 81.21q51.314 51.291 81.247 120.629 29.933 69.337 29.933 147.907 0 78.955-29.92 147.897t-81.21 120.571q-51.291 51.629-120.629 81.746-69.337 30.118-147.907 30.118Zm.167-45.384q139.192 0 236.654-97.769 97.461-97.769 97.461-237.346 0-139.192-97.274-236.654Q620.067-814.615 480-814.615q-139.077 0-236.846 97.274T145.385-480q0 139.077 97.769 236.846T480.5-145.385ZM480-480Z"/></svg>

<svg xmlns="http://www.w3.org/2000/svg" width="48" height="48" viewBox="0 -960 960 960"><path d="M584.62-553v106.31q0 9.65 6.57 16.17 6.57 6.52 16.31 6.52 9.73 0 16.11-6.52 6.39-6.52 6.39-16.17v-154.46q0-12.27-8.29-20.56T601.15-630H446.69q-9.65 0-16.17 6.57-6.52 6.58-6.52 16.31 0 9.74 6.52 16.12 6.52 6.38 16.17 6.38H552L332.69-365.31q-6.69 6.6-6.69 15.92t6.3 15.86q7.09 6.91 16.67 6.72 9.58-.19 16.34-6.88L584.62-553ZM480.33-100q-78.95 0-147.89-29.92-68.95-29.92-120.76-81.71-51.81-51.79-81.75-120.78Q100-401.39 100-480.43q0-78.66 29.92-147.87 29.92-69.21 81.71-120.52 51.79-51.31 120.78-81.25Q401.39-860 480.43-860q78.66 0 147.87 29.92 69.21 29.92 120.52 81.21 51.31 51.29 81.25 120.63Q860-558.9 860-480.33q0 78.95-29.92 147.89-29.92 68.95-81.21 120.57-51.29 51.63-120.63 81.75Q558.9-100 480.33-100Zm.17-45.39q139.19 0 236.65-97.76 97.46-97.77 97.46-237.35 0-139.19-97.27-236.65-97.27-97.46-237.34-97.46-139.08 0-236.85 97.27-97.76 97.27-97.76 237.34 0 139.08 97.76 236.85 97.77 97.76 237.35 97.76ZM480-480Z"/></svg>
